svg/table_row_height.svg

<svg xmlns="http://www.w3.org/2000/svg" viewBox="0 0 24 24"><path d="M3 5h12a2 2 0 0 1 2 2v10a2 2 0 0 1-2 2H3a2 2 0 0 1-2-2V7a2 2 0 0 1 2-2m0 4v3h5V9zm7 0v3h5V9zm-7 5v3h5v-3zm7 0v3h5v-3zm13 0V7h-4v2h2v3h-2v2z"/></svg>

<?xml version="1.0" encoding="UTF-8"?><!DOCTYPE svg PUBLIC "-//W3C//DTD SVG 1.1//EN" "http://www.w3.org/Graphics/SVG/1.1/DTD/svg11.dtd"><svg xmlns="http://www.w3.org/2000/svg" xmlns:xlink="http://www.w3.org/1999/xlink" version="1.1" id="mdi-table-row-height" width="24" height="24" viewBox="0 0 24 24"><path d="M3,5H15A2,2 0 0,1 17,7V17A2,2 0 0,1 15,19H3A2,2 0 0,1 1,17V7A2,2 0 0,1 3,5M3,9V12H8V9H3M10,9V12H15V9H10M3,14V17H8V14H3M10,14V17H15V14H10M23,14V7H19V9H21V12H19V14H23Z" /></svg>
